X:1
T:When My Weary Hands Are Folded
T:When My Weary Hands Are Folded
T:Ira David Sankey (1840-1908)
T:Philip Paul Bliss (1838-1876)
T:Public Domain Courtesy of the Cyber Hymnal™
T:Public Domain Courtesy of the Cyber Hymnal™
C:Ira David Sankey (1840-1908)
Z:Public Domain
Z:Courtesy of the Cyber Hymnal™
%%score ( 1 2 ) ( 3 4 )
L:1/8
Q:1/4=110
M:6/8
K:Ab
V:1 treble 
V:2 treble 
V:3 bass 
V:4 bass 
V:1
 [Ec]2 [Ec] [Ec]2 [EB] | (BA)[DF] [DF]2 [CE] | [CE]2 [CE] [CA]2 [CA] | (AG)[_DA] [EB]3 | %4
w: 1.~When my wea- ry|hands * are fold- ed|On my faint- ly|throbb- * ing breast,|
w: 2.~But a great- er|joy * ’twill give me|If some toil- ing|one * can say,|
w: 3.~When the songs of|earth * are o- ver,|And my last “good-|bye” * is said,|
w: 4.~But if one poor,|wear- * y wand- ’rer|Shall be guid- ed|home * by me,|
w: 5.~When a- mong the|ran- * somed mil- lions|By His grace re-|deemed * I stand,|
 [Ec]2 [Ec] [Ec]2 [EB] | (BA)[DF] [DF]2 [CE] | [CE]2 [EA] [DB]2 [CA] | [Ec]2 [DB] [CA]3 | %8
w: And my soul has|spread * her pin- ions|For the ci- ty|of the blest;|
w: I have helped to|bear * his bur- den|And have cheered him|on the way;|
w: When my life- less|form * they fol- low|To the dwell- ing|of the dead;|
w: ’Twere a grand- er,|nob- * ler mon- ument,|Through- out all e-|ter- ni- ty;|
w: Then my song shall|swell * the chor- us|Of the glad, tri-|umph- ant band;|
 [EB]2 [E=A] [EB]2 [Ec] | [Ed]2 [Ec] [Ec]2 [EB] | [Ec]2 [EB] [EA]2 [EB] | %11
w: ’Twill be sweet to|hear the loved ones|Sing some dear, fa-|
w: Oh! I’ll praise His|grace for- ev- er|Who hath died to|
w: ’Twill be sweet if|friends re- mem- ber|And shall mark the|
w: And to Him shall|be the glo- ry,|Un- to whom all|
w: Oh, how sweet will|be the rest- ing|When my con- flicts|
 [Ec]2 [A=d] (!fermata!e2 _d) | [Ac]2 [Ac] [Ae]2 [Ec] | (cB)[EA] [FA]2 [DF] | %14
w: mil- iar song, *|As I rise to|join * the cho- rus|
w: ran- som me, *|And hath chos- en|me * a shar- er|
w: qui- et spot, *|Tell- ing on- ly|that * the sleep- er|
w: praise is due, *|For the love that|hath * re- deemed us,|
w: are all past, *|Oh, the might- y|“Al- * le- lu- ia”|
 [CE]2 [CA] [DB]2 [CA] |"^riten." [Ec]2 [DB] [CA]3 |] %16
w: Of the blood- washed,|ho- ly throng.|
w: In His bless- èd|work to be.|
w: Hath not quick- ly|been for- got.|
w: And hath made my|hea- ven two.|
w: Of our vic- to-|ry at last!|
V:2
 x6 | F2 x4 | x6 | =D2 x4 | x6 | F2 x4 | x6 | x6 | x6 | x6 | x6 | x3 G3 | x6 | E2 x4 | x6 | x6 |] %16
V:3
 [A,,A,]2 [A,,A,] [A,,A,]2 [C,A,] | [D,A,]2 [D,A,] [A,,A,]2 [A,,A,] | [A,,A,]2 [A,,A,] A,2 A, | %3
 [F,B,]2 [F,B,] [E,G,]3 | [A,,A,]2 [A,,A,] [A,,A,]2 [C,A,] | [D,A,]2 [D,A,] [A,,A,]2 [A,,A,] | %6
 [A,,A,]2 [C,A,] [E,G,]2 [E,A,] | [E,A,]2 [E,G,] [A,,A,]3 | [E,G,]2 [E,^F,] [E,G,]2 [E,A,] | %9
 [E,B,]2 [E,A,] [E,A,]2 [E,G,] | A,2 [E,G,] [C,A,]2 [E,G,] | A,2 [F,B,] (!fermata!B,2 E) | %12
 [A,E]2 [A,E] [A,C]2 [A,,A,] | ([A,,A,][B,,G,])[C,A,] [D,A,]2 [D,A,] | %14
 [E,A,]2 [E,A,] [E,G,]2 [E,A,] | [E,A,]2 [E,G,] [A,,A,]3 |] %16
V:4
 x6 | x6 | x3 A,2 A, | x6 | x6 | x6 | x6 | x6 | x6 | x6 | A,2 x4 | A,2 E,3 x | x6 | x6 | x6 | x6 |] %16

